svg/fluentui-system-icons/ic_fluent_people_sync_20_regular.svg

<svg width="20" height="20" viewBox="0 0 20 20" fill="none" xmlns="http://www.w3.org/2000/svg">
<path d="M4.5 5.75C4.5 4.50736 5.50736 3.5 6.75 3.5C7.99264 3.5 9 4.50736 9 5.75C9 6.99264 7.99264 8 6.75 8C5.50736 8 4.5 6.99264 4.5 5.75ZM6.75 2.5C4.95507 2.5 3.5 3.95507 3.5 5.75C3.5 7.54493 4.95507 9 6.75 9C8.54493 9 10 7.54493 10 5.75C10 3.95507 8.54493 2.5 6.75 2.5ZM1.5 12C1.5 10.8954 2.39543 10 3.5 10H10C10.3612 10 10.7001 10.0958 10.9926 10.2633C10.7157 10.4928 10.4617 10.7489 10.2345 11.0276C10.1593 11.0096 10.0808 11 10 11H3.5C2.94772 11 2.5 11.4477 2.5 12V12.0602L2.50002 12.0612L2.50063 12.0781C2.50141 12.0951 2.50313 12.1233 2.50686 12.1611C2.51433 12.2368 2.52976 12.3497 2.56146 12.4874C2.62512 12.7638 2.75235 13.1312 3.00512 13.497C3.4916 14.2012 4.51315 15 6.75 15C7.70399 15 8.43693 14.8547 9.00159 14.6334C9.00989 14.9824 9.05071 15.3233 9.12112 15.6533C8.47689 15.8698 7.69552 16 6.75 16C4.23685 16 2.8834 15.0801 2.18238 14.0655C1.8414 13.5719 1.67175 13.08 1.58697 12.7118C1.54446 12.5272 1.52278 12.3716 1.5117 12.2593C1.50614 12.2031 1.50322 12.1574 1.50169 12.1241C1.50092 12.1074 1.5005 12.0938 1.50027 12.0835L1.50005 12.0705L1.50001 12.0658L1.5 12.064L1.5 12.0625V12ZM13 6.5C13 5.67157 13.6716 5 14.5 5C15.3284 5 16 5.67157 16 6.5C16 7.32843 15.3284 8 14.5 8C13.6716 8 13 7.32843 13 6.5ZM14.5 4C13.1193 4 12 5.11929 12 6.5C12 7.88071 13.1193 9 14.5 9C15.8807 9 17 7.88071 17 6.5C17 5.11929 15.8807 4 14.5 4ZM10 14.5C10 16.9853 12.0147 19 14.5 19C16.9853 19 19 16.9853 19 14.5C19 12.0147 16.9853 10 14.5 10C12.0147 10 10 12.0147 10 14.5ZM16.5 11.5C16.7761 11.5 17 11.7239 17 12V13.5C17 13.7761 16.7761 14 16.5 14H15C14.7239 14 14.5 13.7761 14.5 13.5C14.5 13.2239 14.7239 13 15 13H15.4682C15.4179 12.9722 15.3663 12.9464 15.3135 12.923C15.0682 12.8137 14.8034 12.755 14.535 12.7503C14.2665 12.7456 13.9998 12.795 13.7508 12.8956C13.5018 12.9962 13.2756 13.1459 13.0857 13.3358C12.8905 13.531 12.5739 13.531 12.3786 13.3358C12.1834 13.1405 12.1834 12.8239 12.3786 12.6287C12.6635 12.3439 13.0027 12.1193 13.3762 11.9684C13.7497 11.8175 14.1497 11.7434 14.5524 11.7505C14.9552 11.7575 15.3524 11.8456 15.7203 12.0094C15.8162 12.0521 15.9095 12.0997 16 12.1519V12C16 11.7239 16.2239 11.5 16.5 11.5ZM15.6238 17.0316C15.2503 17.1825 14.8503 17.2566 14.4476 17.2495C14.0448 17.2425 13.6476 17.1544 13.2797 16.9906C13.1838 16.9479 13.0905 16.9003 13 16.8481V17C13 17.2761 12.7761 17.5 12.5 17.5C12.2239 17.5 12 17.2761 12 17V15.5C12 15.2239 12.2239 15 12.5 15H14C14.2761 15 14.5 15.2239 14.5 15.5C14.5 15.7761 14.2761 16 14 16H13.5318C13.5821 16.0278 13.6337 16.0536 13.6865 16.077C13.9318 16.1863 14.1966 16.245 14.465 16.2497C14.7335 16.2544 15.0002 16.205 15.2492 16.1044C15.4982 16.0038 15.7244 15.8541 15.9143 15.6642C16.1095 15.469 16.4261 15.469 16.6214 15.6642C16.8166 15.8595 16.8166 16.1761 16.6214 16.3713C16.3365 16.6561 15.9973 16.8807 15.6238 17.0316Z" fill="#212121"/>
</svg>

<svg xmlns="http://www.w3.org/2000/svg" width="20" height="20"><path d="M4.5 5.75a2.25 2.25 0 1 1 4.5 0 2.25 2.25 0 0 1-4.5 0ZM6.75 2.5a3.25 3.25 0 1 0 0 6.5 3.25 3.25 0 0 0 0-6.5ZM1.5 12a2 2 0 0 1 2-2H10a2 2 0 0 1 .993.263c-.277.23-.531.486-.758.765A1.006 1.006 0 0 0 10 11H3.5a1 1 0 0 0-1 1v.078l.007.083a2.948 2.948 0 0 0 .498 1.336C3.492 14.201 4.513 15 6.75 15c.954 0 1.687-.145 2.252-.367.008.35.049.69.12 1.02-.645.217-1.426.347-2.372.347-2.513 0-3.867-.92-4.568-1.934a3.948 3.948 0 0 1-.67-1.807 2.589 2.589 0 0 1-.012-.175V12ZM13 6.5a1.5 1.5 0 1 1 3 0 1.5 1.5 0 0 1-3 0ZM14.5 4a2.5 2.5 0 1 0 0 5 2.5 2.5 0 0 0 0-5ZM10 14.5a4.5 4.5 0 1 0 9 0 4.5 4.5 0 0 0-9 0Zm6.5-3a.5.5 0 0 1 .5.5v1.5a.5.5 0 0 1-.5.5H15a.5.5 0 0 1 0-1h.468a1.999 1.999 0 0 0-2.383.336.5.5 0 0 1-.706-.707A3.001 3.001 0 0 1 16 12.152V12a.5.5 0 0 1 .5-.5Zm-.876 5.532A2.999 2.999 0 0 1 13 16.848V17a.5.5 0 0 1-1 0v-1.5a.5.5 0 0 1 .5-.5H14a.5.5 0 0 1 0 1h-.468a1.999 1.999 0 0 0 2.383-.336.5.5 0 0 1 .706.707c-.284.285-.624.51-.997.66Z"/></svg>
